X:01
T:Hesley Hornpipe. JBu.01
O:England,South Yorkshire
S:Joshua Burnett’s MS,c1835,S.Yorkshire
M:C
L:1/8
Q:1/2=90
R:.hornpipe
N:bar 3 indicated in MS by “bis”
N:key given as D in MS, possible error.
N:Hesley, nr. Rotherham, S.Yorks
Z:vmp.R.Greig.2010
K:G
dc|”^Key D in MS”Bgfg edcB|Bgfg edcB|BGBG DGBG|ABcd c2B2|
dBdg eceg|fdfa gfga|bgec BAGF|G2G2G2:|
|:Bc|d2d2dBGB|c2e2e2AB|c2c2cBAG|cdef g2g2|
dBdg eceg|fdfa gfga|bgec BAGF|G2G2G2:|

